map/src/routing/resources/traffic.svg

<svg width="32" height="32" viewBox="0 0 32 32" xmlns="http://www.w3.org/2000/svg">
    <g id="main">
        <path fill-rule="evenodd" clip-rule="evenodd"
              d="M11.389 4H9.02467C8.83459 4 8.65402 4.06267 8.50765 4.17276L8.5066 4.17139C8.42521 4.2288 8.32592 4.26251 8.21875 4.26251C8.15682 4.26251 8.09751 4.25125 8.04277 4.23067L8.01504 4.21927C7.84043 4.14128 7.71875 3.96611 7.71875 3.76251C7.71875 3.61392 7.78357 3.48047 7.88647 3.38889C8.20652 3.14133 8.60486 3 9.02467 3H11.389C12.1466 3 12.8391 3.428 13.1779 4.10557L14.198 6.14586C14.6694 6.32167 15 6.77562 15 7.30155V8.10471C15 8.64813 15 8.91984 14.9289 9.1424C14.7879 9.58404 14.4506 9.93568 14.0152 10.0949C13.7958 10.1752 13.5243 10.1865 12.9814 10.2091L11.5002 10.2708L11.5 10.1047V9.30156C11.5 8.50453 11.0812 7.80005 10.4454 7.40448L9.70581 5.9253C10.4811 5.91562 11.2566 5.92663 12.0314 5.95833H12.9862L12.2835 4.55279C12.1141 4.214 11.7678 4 11.389 4ZM12 8.39998C12 7.8477 12.4477 7.39999 13 7.39999C13.5522 7.39999 14 7.8477 14 8.39999C14 8.67613 13.7761 8.89999 13.5 8.89999H12.5C12.2238 8.89999 12 8.67613 12 8.39998Z"/>
        <path d="M11.8334 11.1146C11.8334 11.0052 11.922 10.9166 12.0313 10.9166H14.0105C14.1198 10.9166 14.2084 11.0052 14.2084 11.1146C14.2084 11.4425 13.9426 11.7083 13.6147 11.7083H12.4272C12.0993 11.7083 11.8334 11.4425 11.8334 11.1146Z"/>
        <path fill-rule="evenodd" clip-rule="evenodd"
              d="M1.80226 8.14573C1.33069 8.32146 1 8.7755 1 9.30156V10.1047C1 10.6481 1 10.9198 1.07105 11.1424C1.21204 11.5841 1.54933 11.9357 1.98473 12.0949C2.20413 12.1752 2.4756 12.1865 3.01854 12.2091L5.75 12.3229L8.48144 12.2091C9.02437 12.1865 9.29587 12.1752 9.51527 12.0949C9.95067 11.9357 10.288 11.5841 10.429 11.1424C10.5 10.9198 10.5 10.6481 10.5 10.1047V9.30156C10.5 8.77562 10.1695 8.32166 9.69805 8.14585L8.67791 6.10557C8.33913 5.428 7.6466 5 6.88906 5H4.6112C3.85365 5 3.16113 5.428 2.82234 6.10557L1.80226 8.14573ZM6.88906 6H4.6112C4.23242 6 3.88616 6.214 3.71677 6.55279L3.014 7.95833H3.96868C5.15573 7.90977 6.34427 7.90977 7.53132 7.95833H8.48626L7.78349 6.55279C7.6141 6.214 7.26783 6 6.88906 6ZM2 10.4C2 9.84771 2.44772 9.39999 3 9.39999C3.55228 9.39999 4 9.84771 4 10.4C4 10.6761 3.77614 10.9 3.5 10.9H2.5C2.22386 10.9 2 10.6761 2 10.4ZM8.5 9.39999C7.94772 9.39999 7.5 9.84771 7.5 10.4C7.5 10.6761 7.72386 10.9 8 10.9H9C9.27614 10.9 9.5 10.6761 9.5 10.4C9.5 9.84771 9.05229 9.39999 8.5 9.39999Z"/>
        <path d="M1.79154 13.1146C1.79154 13.0053 1.88015 12.9166 1.98945 12.9166H3.96862C4.07793 12.9166 4.16654 13.0053 4.16654 13.1146C4.16654 13.4425 3.90071 13.7083 3.57279 13.7083H2.38529C2.05737 13.7083 1.79154 13.4425 1.79154 13.1146Z"/>
        <path d="M7.53138 12.9166C7.42207 12.9166 7.33346 13.0053 7.33346 13.1146C7.33346 13.4425 7.59929 13.7083 7.92721 13.7083H9.11471C9.44263 13.7083 9.70846 13.4425 9.70846 13.1146C9.70846 13.0053 9.61985 12.9166 9.51055 12.9166H7.53138Z"/>
    </g>
</svg>

<svg xmlns="http://www.w3.org/2000/svg" width="32" height="32">
    <g id="main">
        <path fill-rule="evenodd"
              d="M11.389 4H9.025a.86.86 0 0 0-.517.173l-.001-.001a.5.5 0 0 1-.464.059l-.028-.011a.5.5 0 0 1-.129-.83A1.86 1.86 0 0 1 9.025 3h2.364a2 2 0 0 1 1.789 1.106l1.02 2.04c.471.176.802.63.802 1.156v.803c0 .543 0 .815-.071 1.038a1.5 1.5 0 0 1-.914.953c-.219.08-.491.092-1.034.114l-1.481.062v-.166-.803a2.23 2.23 0 0 0-1.055-1.897l-.74-1.479 2.326.033h.955l-.703-1.406A1 1 0 0 0 11.389 4zM12 8.4a1 1 0 1 1 2 0 .5.5 0 0 1-.5.5h-1a.5.5 0 0 1-.5-.5z"/>
        <path d="M11.833 11.115c0-.109.089-.198.198-.198h1.979c.109 0 .198.089.198.198 0 .328-.266.594-.594.594h-1.187c-.328 0-.594-.266-.594-.594z"/>
        <path fill-rule="evenodd"
              d="M1.802 8.146C1.331 8.321 1 8.776 1 9.302v.803c0 .543 0 .815.071 1.038a1.5 1.5 0 0 0 .914.953c.219.08.491.092 1.034.114l2.731.114 2.731-.114c.543-.023.814-.034 1.034-.114a1.5 1.5 0 0 0 .914-.953c.071-.223.071-.494.071-1.038v-.803c0-.526-.331-.98-.802-1.156l-1.02-2.04A2 2 0 0 0 6.889 5H4.611a2 2 0 0 0-1.789 1.106l-1.02 2.04zM6.889 6H4.611a1 1 0 0 0-.894.553l-.703 1.406h.955 3.563.955l-.703-1.406A1 1 0 0 0 6.889 6zM2 10.4a1 1 0 1 1 2 0 .5.5 0 0 1-.5.5h-1a.5.5 0 0 1-.5-.5zm6.5-1a1 1 0 0 0-1 1 .5.5 0 0 0 .5.5h1a.5.5 0 0 0 .5-.5 1 1 0 0 0-1-1z"/>
        <path d="M1.792 13.115c0-.109.089-.198.198-.198h1.979c.109 0 .198.089.198.198 0 .328-.266.594-.594.594H2.385c-.328 0-.594-.266-.594-.594zm5.739-.198c-.109 0-.198.089-.198.198 0 .328.266.594.594.594h1.188c.328 0 .594-.266.594-.594 0-.109-.089-.198-.198-.198h-1.98z"/>
    </g>
</svg>
